X: 1
T: Mary Got Married In The Snow
M: 4/4
L: 1/8
R: reel
K: Ador
eABA e2dB|dGBG DGBd|eABA e2dB|GBdB BAA2:|
ea~a2 bgab|~g2dB GABd|ea~a2 b2ab|gedB BAA2|
ea~a2 bgab|~g2dB GABd|ea~a2 bgaf|gedB BAA2||
